symbols/be/bme/semaphore_approach.svg

<svg version="1.1" viewBox="0.0 0.0 979.5301837270341 774.98687664042" fill="none" stroke="none" stroke-linecap="square" stroke-miterlimit="10" xmlns:xlink="http://www.w3.org/1999/xlink" xmlns="http://www.w3.org/2000/svg"><clipPath id="p.0"><path d="m0 0l979.5302 0l0 774.9869l-979.5302 0l0 -774.9869z" clip-rule="nonzero"/></clipPath><g clip-path="url(#p.0)"><path fill="#000000" fill-opacity="0.0" d="m0 0l979.5302 0l0 774.9869l-979.5302 0z" fill-rule="evenodd"/><path fill="#d9d9d9" d="m479.9987 141.94751l52.81888 0l0 633.03937l-52.81888 0z" fill-rule="evenodd"/><path stroke="#000000" stroke-width="1.0" stroke-linejoin="round" stroke-linecap="butt" d="m479.9987 141.94751l52.81888 0l0 633.03937l-52.81888 0z" fill-rule="evenodd"/><path fill="#000000" d="m524.3808 192.09343l0 0c40.599426 -40.599457 92.56964 -54.45395 116.078735 -30.944885l0 0c11.289429 11.289459 14.371521 29.861496 8.568237 51.630478c-5.8032837 21.768982 -20.016602 44.95172 -39.513123 64.44827l0 0c-40.599426 40.599457 -92.5697 54.45395 -116.078735 30.944885l0 0c-23.509064 -23.509064 -9.654572 -75.479294 30.944885 -116.07875z" fill-rule="evenodd"/><path stroke="#000000" stroke-width="1.0" stroke-linejoin="round" stroke-linecap="butt" d="m524.3808 192.09343l0 0c40.599426 -40.599457 92.56964 -54.45395 116.078735 -30.944885l0 0c11.289429 11.289459 14.371521 29.861496 8.568237 51.630478c-5.8032837 21.768982 -20.016602 44.95172 -39.513123 64.44827l0 0c-40.599426 40.599457 -92.5697 54.45395 -116.078735 30.944885l0 0c-23.509064 -23.509064 -9.654572 -75.479294 30.944885 -116.07875z" fill-rule="evenodd"/><path fill="#000000" d="m505.7069 173.4187l0 0c17.69049 -17.690506 45.47705 -18.585938 62.06299 -2.0l0 0c7.9648438 7.9648438 12.22876 18.97821 11.853699 30.61728c-0.37506104 11.639069 -5.3583984 22.950424 -13.853699 31.44571l0 0c-17.69049 17.690506 -45.47705 18.585938 -62.06299 2.0l0 0c-16.585938 -16.585938 -15.690491 -44.372482 2.0 -62.06299z" fill-rule="evenodd"/><path stroke="#000000" stroke-width="1.0" stroke-linejoin="round" stroke-linecap="butt" d="m505.7069 173.4187l0 0c17.69049 -17.690506 45.47705 -18.585938 62.06299 -2.0l0 0c7.9648438 7.9648438 12.22876 18.97821 11.853699 30.61728c-0.37506104 11.639069 -5.3583984 22.950424 -13.853699 31.44571l0 0c-17.69049 17.690506 -45.47705 18.585938 -62.06299 2.0l0 0c-16.585938 -16.585938 -15.690491 -44.372482 2.0 -62.06299z" fill-rule="evenodd"/><path fill="#000000" d="m634.9795 164.2763l37.35437 37.354324l-31.275574 31.275589l-37.35437 -37.354324z" fill-rule="evenodd"/><path stroke="#000000" stroke-width="1.0" stroke-linejoin="round" stroke-linecap="butt" d="m634.9795 164.2763l37.35437 37.354324l-31.275574 31.275589l-37.35437 -37.354324z" fill-rule="evenodd"/><path fill="#ff0000" d="m822.15405 58.3485l-148.95282 144.14955l-35.8266 -35.826645l144.14954 -148.95282z" fill-rule="evenodd"/><path stroke="#000000" stroke-width="1.0" stroke-linejoin="round" stroke-linecap="butt" d="m822.15405 58.3485l-148.95282 144.14955l-35.8266 -35.826645l144.14954 -148.95282z" fill-rule="evenodd"/><path fill="#ffffff" d="m804.82434 75.09916l-16.845032 16.288773l-39.47522 -39.47518l16.288757 -16.845085z" fill-rule="evenodd"/><path stroke="#000000" stroke-width="1.0" stroke-linejoin="round" stroke-linecap="butt" d="m804.82434 75.09916l-16.845032 16.288773l-39.47522 -39.47518l16.288757 -16.845085z" fill-rule="evenodd"/><path fill="#274e13" d="m503.96524 262.3535l0 0c9.749786 -9.749771 25.557343 -9.749771 35.3071 0l0 0c4.682007 4.6820374 7.312317 11.032196 7.312317 17.653564c0 6.6213684 -2.63031 12.971527 -7.312317 17.653534l0 0c-9.749756 9.749786 -25.557312 9.749786 -35.3071 0l0 0c-9.749756 -9.749786 -9.749756 -25.557312 0 -35.3071z" fill-rule="evenodd"/><path stroke="#000000" stroke-width="1.0" stroke-linejoin="round" stroke-linecap="butt" d="m503.96524 262.3535l0 0c9.749786 -9.749771 25.557343 -9.749771 35.3071 0l0 0c4.682007 4.6820374 7.312317 11.032196 7.312317 17.653564c0 6.6213684 -2.63031 12.971527 -7.312317 17.653534l0 0c-9.749756 9.749786 -25.557312 9.749786 -35.3071 0l0 0c-9.749756 -9.749786 -9.749756 -25.557312 0 -35.3071z" fill-rule="evenodd"/><path fill="#ffff00" d="m565.5086 239.07187l0 0c9.749756 -9.749786 25.557312 -9.749786 35.307068 0l0 0c4.682007 4.682007 7.312317 11.032181 7.312317 17.653534c0 6.6213684 -2.63031 12.971558 -7.312317 17.653564l0 0c-9.749756 9.749786 -25.557312 9.749786 -35.307068 0l0 0c-9.749817 -9.749786 -9.749817 -25.557312 0 -35.3071z" fill-rule="evenodd"/><path stroke="#000000" stroke-width="1.0" stroke-linejoin="round" stroke-linecap="butt" d="m565.5086 239.07187l0 0c9.749756 -9.749786 25.557312 -9.749786 35.307068 0l0 0c4.682007 4.682007 7.312317 11.032181 7.312317 17.653534c0 6.6213684 -2.63031 12.971558 -7.312317 17.653564l0 0c-9.749756 9.749786 -25.557312 9.749786 -35.307068 0l0 0c-9.749817 -9.749786 -9.749817 -25.557312 0 -35.3071z" fill-rule="evenodd"/><path fill="#660000" d="m582.76404 171.50235l0 0c9.749817 -9.749786 25.557312 -9.749786 35.307068 0l0 0c4.682007 4.682007 7.312378 11.032166 7.312378 17.653534c0 6.6213684 -2.630371 12.971527 -7.312378 17.65355l0 0c-9.749756 9.749771 -25.557251 9.749771 -35.307068 0l0 0c-9.749756 -9.749786 -9.749756 -25.557312 0 -35.307083z" fill-rule="evenodd"/><path stroke="#000000" stroke-width="1.0" stroke-linejoin="round" stroke-linecap="butt" d="m582.76404 171.50235l0 0c9.749817 -9.749786 25.557312 -9.749786 35.307068 0l0 0c4.682007 4.682007 7.312378 11.032166 7.312378 17.653534c0 6.6213684 -2.630371 12.971527 -7.312378 17.65355l0 0c-9.749756 9.749771 -25.557251 9.749771 -35.307068 0l0 0c-9.749756 -9.749786 -9.749756 -25.557312 0 -35.307083z" fill-rule="evenodd"/></g></svg>

<?xml version="1.0" encoding="UTF-8"?>
<svg xmlns="http://www.w3.org/2000/svg" xmlns:xlink="http://www.w3.org/1999/xlink" width="27.80649" height="22" viewBox="0 0 27.80649 22">
<path fill-rule="evenodd" fill="rgb(85.098039%, 85.098039%, 85.098039%)" fill-opacity="1" stroke-width="1" stroke-linecap="butt" stroke-linejoin="round" stroke="rgb(0%, 0%, 0%)" stroke-opacity="1" stroke-miterlimit="10" d="M 479.963464 142.007539 L 532.803478 142.007539 L 532.803478 774.986877 L 479.963464 774.986877 Z M 479.963464 142.007539 " transform="matrix(0.0283876, 0, 0, 0.0283876, 0, 0)"/>
<path fill-rule="evenodd" fill="rgb(0%, 0%, 0%)" fill-opacity="1" stroke-width="1" stroke-linecap="butt" stroke-linejoin="round" stroke="rgb(0%, 0%, 0%)" stroke-opacity="1" stroke-miterlimit="10" d="M 524.409622 192.095469 C 565.002862 151.502229 617.017251 137.604204 640.409966 161.134523 C 651.693511 172.418068 654.858407 190.994635 649.079031 212.7361 C 643.16205 234.615168 628.988817 257.732674 609.44902 277.272471 C 568.85578 317.865711 516.978995 331.626132 493.448676 308.233417 C 469.918357 284.703098 483.816382 232.688709 524.409622 192.095469 Z M 524.409622 192.095469 " transform="matrix(0.0283876, 0, 0, 0.0283876, 0, 0)"/>
<path fill-rule="evenodd" fill="rgb(0%, 0%, 0%)" fill-opacity="1" stroke-width="1" stroke-linecap="butt" stroke-linejoin="round" stroke="rgb(0%, 0%, 0%)" stroke-opacity="1" stroke-miterlimit="10" d="M 505.69545 173.381297 C 523.446392 155.767959 551.242442 154.80473 567.754946 171.454838 C 575.73599 179.435882 580.00172 190.444218 579.588908 202.002972 C 579.313699 213.699329 574.222344 224.982874 565.828487 233.514334 C 548.077545 251.127672 520.281496 252.090902 503.768991 235.440793 C 487.118882 218.928289 488.082112 191.132239 505.69545 173.381297 Z M 505.69545 173.381297 " transform="matrix(0.0283876, 0, 0, 0.0283876, 0, 0)"/>
<path fill-rule="evenodd" fill="rgb(0%, 0%, 0%)" fill-opacity="1" stroke-width="1" stroke-linecap="butt" stroke-linejoin="round" stroke="rgb(0%, 0%, 0%)" stroke-opacity="1" stroke-miterlimit="10" d="M 635.043402 164.29942 L 672.334141 201.590159 L 641.097987 232.963918 L 603.669643 195.535574 Z M 635.043402 164.29942 " transform="matrix(0.0283876, 0, 0, 0.0283876, 0, 0)"/>
<path fill-rule="evenodd" fill="rgb(100%, 0%, 0%)" fill-opacity="1" stroke-width="1" stroke-linecap="butt" stroke-linejoin="round" stroke="rgb(0%, 0%, 0%)" stroke-opacity="1" stroke-miterlimit="10" d="M 822.185119 58.344183 L 673.159766 202.553388 L 637.382673 166.638691 L 781.591879 17.750942 Z M 822.185119 58.344183 " transform="matrix(0.0283876, 0, 0, 0.0283876, 0, 0)"/>
<path fill-rule="evenodd" fill="rgb(100%, 100%, 100%)" fill-opacity="1" stroke-width="1" stroke-linecap="butt" stroke-linejoin="round" stroke="rgb(0%, 0%, 0%)" stroke-opacity="1" stroke-miterlimit="10" d="M 804.84699 75.131895 L 787.921673 91.369192 L 748.56687 51.876785 L 764.804166 35.089072 Z M 804.84699 75.131895 " transform="matrix(0.0283876, 0, 0, 0.0283876, 0, 0)"/>
<path fill-rule="evenodd" fill="rgb(15.294118%, 30.588235%, 7.45098%)" fill-opacity="1" stroke-width="1" stroke-linecap="butt" stroke-linejoin="round" stroke="rgb(0%, 0%, 0%)" stroke-opacity="1" stroke-miterlimit="10" d="M 503.906595 262.411217 C 513.676494 252.641319 529.500977 252.641319 539.270876 262.411217 C 543.949419 267.08976 546.563899 273.419554 546.563899 280.024555 C 546.563899 286.629557 543.949419 292.959351 539.270876 297.637893 C 529.500977 307.407792 513.676494 307.407792 503.906595 297.637893 C 494.274301 287.867995 494.274301 272.043511 503.906595 262.411217 Z M 503.906595 262.411217 " transform="matrix(0.0283876, 0, 0, 0.0283876, 0, 0)"/>
<path fill-rule="evenodd" fill="rgb(100%, 100%, 0%)" fill-opacity="1" stroke-width="1" stroke-linecap="butt" stroke-linejoin="round" stroke="rgb(0%, 0%, 0%)" stroke-opacity="1" stroke-miterlimit="10" d="M 565.553279 239.018503 C 575.323177 229.386208 591.010057 229.386208 600.779955 239.018503 C 605.458498 243.697045 608.072978 250.164443 608.072978 256.769445 C 608.072978 263.374447 605.458498 269.70424 600.779955 274.382783 C 591.010057 284.152681 575.323177 284.152681 565.553279 274.382783 C 555.78338 264.612884 555.78338 248.788401 565.553279 239.018503 Z M 565.553279 239.018503 " transform="matrix(0.0283876, 0, 0, 0.0283876, 0, 0)"/>
<path fill-rule="evenodd" fill="rgb(40%, 0%, 0%)" fill-opacity="1" stroke-width="1" stroke-linecap="butt" stroke-linejoin="round" stroke="rgb(0%, 0%, 0%)" stroke-opacity="1" stroke-miterlimit="10" d="M 582.753804 171.454838 C 592.523703 161.68494 608.348186 161.68494 618.118085 171.454838 C 622.796628 176.133381 625.411108 182.600779 625.411108 189.205781 C 625.411108 195.810782 622.796628 202.140576 618.118085 206.819119 C 608.348186 216.589017 592.523703 216.589017 582.753804 206.819119 C 572.983906 197.04922 572.983906 181.224737 582.753804 171.454838 Z M 582.753804 171.454838 " transform="matrix(0.0283876, 0, 0, 0.0283876, 0, 0)"/>
</svg>
